X: 100416
T: IRISH JIG
C: By John B. Easton, Edinburgh
R: jig
B: K\"ohler's Violin Repository, v.3, 1885 p.268 #2
F: http://www.archive.org/details/klersviolinrepos03rugg
Z: 2012 John Chambers <jc:trillian.mit.edu>
N: The 2nd part has an initial repeat but no final repeat; fixed.
M: 6/8
L: 1/8
K: G
(ud/c/) |\
BGG DGG | EGE DB,G, | CEG B,DG | EFG A2d/c/ |\
BGG DGG | EGE DB,G, | CDE DGB | AFD G2 :|
|: B/c/ |\
dgd ecA | dBG AFD | dgd eag | fef g2f/g/ |\
afd gdB | ecA dBG | EFG Adc | BGG G2 :|

%%sep 2 1 500

